packages/components/icon/src/assets/icons/menu-switch.svg

<svg width="24" height="24" viewBox="0 0 24 24" fill="none" xmlns="http://www.w3.org/2000/svg">
<path fill-rule="evenodd" clip-rule="evenodd" d="M20.3554 4C20.6012 4 20.8073 4.08316 20.9737 4.24948C21.14 4.41581 21.2231 4.6219 21.2231 4.86777V6.01756C21.2231 6.24897 21.14 6.45145 20.9737 6.625C20.8073 6.79855 20.6012 6.88533 20.3554 6.88533H3.86777C3.63636 6.88533 3.43389 6.79855 3.26033 6.625C3.08678 6.45145 3 6.24897 3 6.01756V4.86777C3 4.6219 3.08678 4.41581 3.26033 4.24948C3.43389 4.08316 3.63636 4 3.86777 4H20.3554ZM20.3554 10.1395C20.6012 10.1395 20.8073 10.2226 20.9737 10.3889C21.14 10.5553 21.2231 10.7614 21.2231 11.0072V12.157C21.2231 12.3884 21.14 12.5909 20.9737 12.7645C20.8073 12.938 20.6012 13.0248 20.3554 13.0248H3.86777C3.63636 13.0248 3.43389 12.938 3.26033 12.7645C3.08678 12.5909 3 12.3884 3 12.157V11.0072C3 10.7614 3.08678 10.5553 3.26033 10.3889C3.43389 10.2226 3.63636 10.1395 3.86777 10.1395H20.3554ZM20.3554 16.3006C20.6012 16.3006 20.8073 16.3838 20.9737 16.5501C21.14 16.7164 21.2231 16.9225 21.2231 17.1684V18.3182C21.2231 18.5641 21.14 18.7701 20.9737 18.9365C20.8073 19.1028 20.6012 19.186 20.3554 19.186H3.86777C3.63636 19.186 3.43389 19.1028 3.26033 18.9365C3.08678 18.7701 3 18.5641 3 18.3182V17.1684C3 16.9225 3.08678 16.7164 3.26033 16.5501C3.43389 16.3838 3.63636 16.3006 3.86777 16.3006H20.3554Z" fill="currentColor"/>
</svg>

<svg xmlns="http://www.w3.org/2000/svg" width="24" height="24"><path d="M20.355 4a.84.84 0 01.619.25.84.84 0 01.25.618v1.15a.85.85 0 01-.25.607.822.822 0 01-.619.26H3.868a.833.833 0 01-.608-.26.833.833 0 01-.26-.607v-1.15c0-.246.087-.452.26-.619A.85.85 0 013.868 4h16.487zm0 6.14a.84.84 0 01.619.249.84.84 0 01.25.618v1.15a.85.85 0 01-.25.607.822.822 0 01-.619.26H3.868a.833.833 0 01-.608-.26.833.833 0 01-.26-.607v-1.15c0-.246.087-.452.26-.618a.85.85 0 01.608-.25h16.487zm0 6.16a.84.84 0 01.619.25.84.84 0 01.25.618v1.15a.84.84 0 01-.25.618.84.84 0 01-.619.25H3.868a.85.85 0 01-.608-.25.822.822 0 01-.26-.618v-1.15c0-.245.087-.452.26-.618a.85.85 0 01.608-.25h16.487z" fill="currentColor" fill-rule="evenodd"/></svg>
